Newaita-dark/actions/22/view-sort.svg

<svg height="22" viewBox="0 0 22 22" width="22" xmlns="http://www.w3.org/2000/svg"><g fill="#e0e0e0"><path d="m19.554688 5.175781h-9.550782c-.25 0-.453125-.203125-.453125-.457031v-.910156c0-.25.203125-.453125.453125-.453125h9.550782c.253906 0 .457031.203125.457031.453125v.910156c0 .253906-.203125.457031-.457031.457031zm0 0"/><path d="m19.554688 11.996094h-9.550782c-.25 0-.453125-.203125-.453125-.453125v-.910157c0-.25.203125-.457031.453125-.457031h9.550782c.253906 0 .457031.207031.457031.457031v.910157c0 .25-.203125.453125-.457031.453125zm0 0"/><path d="m19.554688 18.820312h-9.550782c-.25 0-.453125-.207031-.453125-.457031v-.910156c0-.25.203125-.453125.453125-.453125h9.550782c.253906 0 .457031.203125.457031.453125v.910156c0 .25-.203125.457031-.457031.457031zm0 0"/><path d="m4.09375 16.542969h1.820312v-4.078125c0-.253906-.203124-.457032-.457031-.457032h-.910156c-.25 0-.453125.203126-.453125.457032zm0 0"/><path d="m8.1875 15.636719h-6.367188l3.183594 4.546875zm0 0"/><path d="m4.09375 5.628906h1.820312v4.082032c0 .253906-.203124.453124-.457031.453124h-.910156c-.25 0-.453125-.199218-.453125-.453124zm0 0"/><path d="m8.1875 6.539062h-6.367188l3.183594-4.546874zm0 0"/></g></svg>

<?xml version="1.0" encoding="UTF-8"?>
<svg xmlns="http://www.w3.org/2000/svg" xmlns:xlink="http://www.w3.org/1999/xlink" width="22px" height="22px" viewBox="0 0 22 22" version="1.1">
<g id="surface1">
<path style=" stroke:none;fill-rule:nonzero;fill:rgb(87.843138%,87.843138%,87.843138%);fill-opacity:1;" d="M 19.554688 5.175781 L 10.003906 5.175781 C 9.753906 5.175781 9.550781 4.972656 9.550781 4.71875 L 9.550781 3.808594 C 9.550781 3.558594 9.753906 3.355469 10.003906 3.355469 L 19.554688 3.355469 C 19.808594 3.355469 20.011719 3.558594 20.011719 3.808594 L 20.011719 4.71875 C 20.011719 4.972656 19.808594 5.175781 19.554688 5.175781 Z M 19.554688 5.175781 "/>
<path style=" stroke:none;fill-rule:nonzero;fill:rgb(87.843138%,87.843138%,87.843138%);fill-opacity:1;" d="M 19.554688 11.996094 L 10.003906 11.996094 C 9.753906 11.996094 9.550781 11.792969 9.550781 11.542969 L 9.550781 10.632812 C 9.550781 10.382812 9.753906 10.175781 10.003906 10.175781 L 19.554688 10.175781 C 19.808594 10.175781 20.011719 10.382812 20.011719 10.632812 L 20.011719 11.542969 C 20.011719 11.792969 19.808594 11.996094 19.554688 11.996094 Z M 19.554688 11.996094 "/>
<path style=" stroke:none;fill-rule:nonzero;fill:rgb(87.843138%,87.843138%,87.843138%);fill-opacity:1;" d="M 19.554688 18.820312 L 10.003906 18.820312 C 9.753906 18.820312 9.550781 18.613281 9.550781 18.363281 L 9.550781 17.453125 C 9.550781 17.203125 9.753906 17 10.003906 17 L 19.554688 17 C 19.808594 17 20.011719 17.203125 20.011719 17.453125 L 20.011719 18.363281 C 20.011719 18.613281 19.808594 18.820312 19.554688 18.820312 Z M 19.554688 18.820312 "/>
<path style=" stroke:none;fill-rule:nonzero;fill:rgb(87.843138%,87.843138%,87.843138%);fill-opacity:1;" d="M 4.09375 16.542969 L 5.914062 16.542969 L 5.914062 12.464844 C 5.914062 12.210938 5.710938 12.007812 5.457031 12.007812 L 4.546875 12.007812 C 4.296875 12.007812 4.09375 12.210938 4.09375 12.464844 Z M 4.09375 16.542969 "/>
<path style=" stroke:none;fill-rule:nonzero;fill:rgb(87.843138%,87.843138%,87.843138%);fill-opacity:1;" d="M 8.1875 15.636719 L 1.820312 15.636719 L 5.003906 20.183594 Z M 8.1875 15.636719 "/>
<path style=" stroke:none;fill-rule:nonzero;fill:rgb(87.843138%,87.843138%,87.843138%);fill-opacity:1;" d="M 4.09375 5.628906 L 5.914062 5.628906 L 5.914062 9.710938 C 5.914062 9.964844 5.710938 10.164062 5.457031 10.164062 L 4.546875 10.164062 C 4.296875 10.164062 4.09375 9.964844 4.09375 9.710938 Z M 4.09375 5.628906 "/>
<path style=" stroke:none;fill-rule:nonzero;fill:rgb(87.843138%,87.843138%,87.843138%);fill-opacity:1;" d="M 8.1875 6.539062 L 1.820312 6.539062 L 5.003906 1.992188 Z M 8.1875 6.539062 "/>
</g>
</svg>
